X: 43006
T: Willow, The
R: reel
M: 4/4
K: Dmajor
|:D3 F ADFA|dcdB ADFA|E3 F GFGA|BdcB AFEF|
D3 F ADFA|dcdB ADFA|GFGA (3Bcd AG|1 FEDC D2 FE:|2 FEDC D2 Bc||
|:d2 fd Adfd|Adfd AF (3DDD|=c2 ec GE ~C2|E=CEG =cGEc|
[1d2 fd Adfd|Adfd AF (3DDD|GFGA (3Bcd AG|FEDC D2 Bc:|
[2D3 F ADFA|dcdB ADFA|GFGA (3Bcd AG|FEDC D2 FE||

